static/img/kroki/fedaa26c0f6ee8d1986deaea932f036f.svg

<?xml version="1.0" encoding="us-ascii" standalone="no"?><svg xmlns="http://www.w3.org/2000/svg" xmlns:xlink="http://www.w3.org/1999/xlink" contentStyleType="text/css" height="252px" preserveAspectRatio="none" style="width:645px;height:252px;" version="1.1" viewBox="0 0 645 252" width="645px" zoomAndPan="magnify"><defs/><g><!--class gcp_forwarding_rule--><g id="elem_gcp_forwarding_rule"><rect codeLine="22" fill="#3D176E" height="39.7891" id="gcp_forwarding_rule" rx="2.5" ry="2.5" style="stroke:#000D19;stroke-width:0.5;" width="212" x="7" y="7"/><ellipse cx="22" cy="26.8945" fill="#ADD1B2" rx="11" ry="11" style="stroke:#181818;stroke-width:1.0;"/><path d="M24.9688,32.5352 Q24.3906,32.832 23.75,32.9727 Q23.1094,33.1289 22.4063,33.1289 Q19.9063,33.1289 18.5781,31.4883 Q17.2656,29.832 17.2656,26.707 Q17.2656,23.582 18.5781,21.9258 Q19.9063,20.2695 22.4063,20.2695 Q23.1094,20.2695 23.75,20.4258 Q24.4063,20.582 24.9688,20.8789 L24.9688,23.5977 Q24.3438,23.0195 23.75,22.7539 Q23.1563,22.4727 22.5313,22.4727 Q21.1875,22.4727 20.5,23.5508 Q19.8125,24.6133 19.8125,26.707 Q19.8125,28.8008 20.5,29.8789 Q21.1875,30.9414 22.5313,30.9414 Q23.1563,30.9414 23.75,30.6758 Q24.3438,30.3945 24.9688,29.8164 L24.9688,32.5352 Z " fill="#000000"/><text fill="#D9B8FF" font-family="Helvetica" font-size="17" lengthAdjust="spacing" textLength="170" x="41" y="32.7798">gcp_forwarding_rule</text></g><!--class gcp_ssl_certificate--><g id="elem_gcp_ssl_certificate"><rect codeLine="24" fill="#3D176E" height="39.7891" id="gcp_ssl_certificate" rx="2.5" ry="2.5" style="stroke:#000D19;stroke-width:0.5;" width="192" x="254" y="7"/><ellipse cx="269" cy="26.8945" fill="#ADD1B2" rx="11" ry="11" style="stroke:#181818;stroke-width:1.0;"/><path d="M271.9688,32.5352 Q271.3906,32.832 270.75,32.9727 Q270.1094,33.1289 269.4063,33.1289 Q266.9063,33.1289 265.5781,31.4883 Q264.2656,29.832 264.2656,26.707 Q264.2656,23.582 265.5781,21.9258 Q266.9063,20.2695 269.4063,20.2695 Q270.1094,20.2695 270.75,20.4258 Q271.4063,20.582 271.9688,20.8789 L271.9688,23.5977 Q271.3438,23.0195 270.75,22.7539 Q270.1563,22.4727 269.5313,22.4727 Q268.1875,22.4727 267.5,23.5508 Q266.8125,24.6133 266.8125,26.707 Q266.8125,28.8008 267.5,29.8789 Q268.1875,30.9414 269.5313,30.9414 Q270.1563,30.9414 270.75,30.6758 Q271.3438,30.3945 271.9688,29.8164 L271.9688,32.5352 Z " fill="#000000"/><text fill="#D9B8FF" font-family="Helvetica" font-size="17" lengthAdjust="spacing" textLength="150" x="288" y="32.7798">gcp_ssl_certificate</text></g><!--class gcp_ssl_policy--><g id="elem_gcp_ssl_policy"><rect codeLine="26" fill="#3D176E" height="39.7891" id="gcp_ssl_policy" rx="2.5" ry="2.5" style="stroke:#000D19;stroke-width:0.5;" width="157" x="481.5" y="7"/><ellipse cx="496.5" cy="26.8945" fill="#ADD1B2" rx="11" ry="11" style="stroke:#181818;stroke-width:1.0;"/><path d="M499.4688,32.5352 Q498.8906,32.832 498.25,32.9727 Q497.6094,33.1289 496.9063,33.1289 Q494.4063,33.1289 493.0781,31.4883 Q491.7656,29.832 491.7656,26.707 Q491.7656,23.582 493.0781,21.9258 Q494.4063,20.2695 496.9063,20.2695 Q497.6094,20.2695 498.25,20.4258 Q498.9063,20.582 499.4688,20.8789 L499.4688,23.5977 Q498.8438,23.0195 498.25,22.7539 Q497.6563,22.4727 497.0313,22.4727 Q495.6875,22.4727 495,23.5508 Q494.3125,24.6133 494.3125,26.707 Q494.3125,28.8008 495,29.8789 Q495.6875,30.9414 497.0313,30.9414 Q497.6563,30.9414 498.25,30.6758 Q498.8438,30.3945 499.4688,29.8164 L499.4688,32.5352 Z " fill="#000000"/><text fill="#D9B8FF" font-family="Helvetica" font-size="17" lengthAdjust="spacing" textLength="115" x="515.5" y="32.7798">gcp_ssl_policy</text></g><!--class gcp_target_https_proxy--><g id="elem_gcp_target_https_proxy"><rect codeLine="28" fill="#3D176E" height="39.7891" id="gcp_target_https_proxy" rx="2.5" ry="2.5" style="stroke:#000D19;stroke-width:0.5;" width="238" x="231" y="106.79"/><ellipse cx="246" cy="126.6845" fill="#ADD1B2" rx="11" ry="11" style="stroke:#181818;stroke-width:1.0;"/><path d="M248.9688,132.3252 Q248.3906,132.622 247.75,132.7627 Q247.1094,132.9189 246.4063,132.9189 Q243.9063,132.9189 242.5781,131.2783 Q241.2656,129.622 241.2656,126.497 Q241.2656,123.372 242.5781,121.7158 Q243.9063,120.0595 246.4063,120.0595 Q247.1094,120.0595 247.75,120.2158 Q248.4063,120.372 248.9688,120.6689 L248.9688,123.3877 Q248.3438,122.8095 247.75,122.5439 Q247.1563,122.2627 246.5313,122.2627 Q245.1875,122.2627 244.5,123.3408 Q243.8125,124.4033 243.8125,126.497 Q243.8125,128.5908 244.5,129.6689 Q245.1875,130.7314 246.5313,130.7314 Q247.1563,130.7314 247.75,130.4658 Q248.3438,130.1845 248.9688,129.6064 L248.9688,132.3252 Z " fill="#000000"/><text fill="#D9B8FF" font-family="Helvetica" font-size="17" lengthAdjust="spacing" textLength="196" x="265" y="132.5698">gcp_target_https_proxy</text></g><!--class gcp_url_map--><g id="elem_gcp_url_map"><rect codeLine="30" fill="#3D176E" height="39.7891" id="gcp_url_map" rx="2.5" ry="2.5" style="stroke:#000D19;stroke-width:0.5;" width="148" x="276" y="206.58"/><ellipse cx="291" cy="226.4745" fill="#ADD1B2" rx="11" ry="11" style="stroke:#181818;stroke-width:1.0;"/><path d="M293.9688,232.1152 Q293.3906,232.412 292.75,232.5527 Q292.1094,232.7089 291.4063,232.7089 Q288.9063,232.7089 287.5781,231.0683 Q286.2656,229.412 286.2656,226.287 Q286.2656,223.162 287.5781,221.5058 Q288.9063,219.8495 291.4063,219.8495 Q292.1094,219.8495 292.75,220.0058 Q293.4063,220.162 293.9688,220.4589 L293.9688,223.1777 Q293.3438,222.5995 292.75,222.3339 Q292.1563,222.0527 291.5313,222.0527 Q290.1875,222.0527 289.5,223.1308 Q288.8125,224.1933 288.8125,226.287 Q288.8125,228.3808 289.5,229.4589 Q290.1875,230.5214 291.5313,230.5214 Q292.1563,230.5214 292.75,230.2558 Q293.3438,229.9745 293.9688,229.3964 L293.9688,232.1152 Z " fill="#000000"/><text fill="#D9B8FF" font-family="Helvetica" font-size="17" lengthAdjust="spacing" textLength="106" x="310" y="232.3598">gcp_url_map</text></g><!--link gcp_forwarding_rule to gcp_target_https_proxy--><g id="link_gcp_forwarding_rule_gcp_target_https_proxy"><path codeLine="32" d="M159.82,47.22 C199.59,63.62 256.6,87.15 297.82,104.16 " fill="none" id="gcp_forwarding_rule-to-gcp_target_https_proxy" style="stroke:#1A83AF;stroke-width:2.0;"/><polygon fill="#1A83AF" points="302.27,106.41,295.482,99.274,297.6496,104.4991,292.4245,106.6667,302.27,106.41" style="stroke:#1A83AF;stroke-width:2.0;"/></g><!--link gcp_ssl_certificate to gcp_target_https_proxy--><g id="link_gcp_ssl_certificate_gcp_target_https_proxy"><path codeLine="33" d="M350,47.22 C350,62.49 350,83.92 350,100.53 " fill="none" id="gcp_ssl_certificate-to-gcp_target_https_proxy" style="stroke:#1A83AF;stroke-width:2.0;"/><polygon fill="#1A83AF" points="350,105.41,354,96.41,350,100.41,346,96.41,350,105.41" style="stroke:#1A83AF;stroke-width:2.0;"/></g><!--link gcp_ssl_policy to gcp_target_https_proxy--><g id="link_gcp_ssl_policy_gcp_target_https_proxy"><path codeLine="34" d="M518.51,47.22 C483.42,63.56 433.17,86.96 396.68,103.95 " fill="none" id="gcp_ssl_policy-to-gcp_target_https_proxy" style="stroke:#1A83AF;stroke-width:2.0;"/><polygon fill="#1A83AF" points="392.4,106.41,402.2476,106.2526,396.936,104.3065,398.8821,98.995,392.4,106.41" style="stroke:#1A83AF;stroke-width:2.0;"/></g><!--link gcp_target_https_proxy to gcp_url_map--><g id="link_gcp_target_https_proxy_gcp_url_map"><path codeLine="35" d="M350,147.01 C350,162.28 350,183.71 350,200.32 " fill="none" id="gcp_target_https_proxy-to-gcp_url_map" style="stroke:#1A83AF;stroke-width:2.0;"/><polygon fill="#1A83AF" points="350,205.2,354,196.2,350,200.2,346,196.2,350,205.2" style="stroke:#1A83AF;stroke-width:2.0;"/></g><!--SRC=[bP31JW8n48RlF4KJpYIiH86BoKf2z4ACU3DcKzhfRaEtRQQp8XhVNHRHrDq5z3h_DzFlRw4bC2WzRLa9vGemzC9QMy-Hbon5T9kPCmvPNockHkDcE7UMpW8BNWAx1VC2f0Ll4e-55ciB8R2BABhXOfsZgwpyEa_8RTX5O2cYPeQ7a1AXNbK4aOoShYPADSdcqVv89kChQ64E9U016Gw7CfasaRDFdUpzGopr6x0a_hI58sXfjfxOKoSjQoAIR1NzpeywtdCfjStPPJHx-7922_XhlYouT9kQLjo4-9b0WE1ews7MQWNJYLJZJlZk62pgdsEvy9bokE5OAsPO6M3llOye3S5a0f2qshMYhjGxeyMs4H3772WhY7p8FBhN9b2XoKhkzzCkYy5JFqadetJ-FBW-Sh7NvVUVlOFvNrSwEhLM3xK-0G00]--></g></svg>

<svg xmlns="http://www.w3.org/2000/svg" width="645" height="252" preserveAspectRatio="none" style="width:645px;height:252px"><rect width="212" height="39.789" x="7" y="7" fill="#3D176E" rx="2.5" ry="2.5" style="stroke:#000d19;stroke-width:.5"/><circle cx="22" cy="26.895" r="11" fill="#ADD1B2" style="stroke:#181818;stroke-width:1"/><path d="M24.969 32.535q-.578.297-1.219.438-.64.156-1.344.156-2.5 0-3.828-1.64-1.312-1.657-1.312-4.782t1.312-4.781q1.328-1.656 3.828-1.656.703 0 1.344.156.656.156 1.219.453v2.719q-.625-.578-1.219-.844-.594-.281-1.219-.281-1.343 0-2.031 1.078-.688 1.062-.688 3.156 0 2.094.688 3.172.688 1.062 2.031 1.062.625 0 1.219-.265.594-.281 1.219-.86v2.72Z"/><text x="41" y="32.78" fill="#D9B8FF" font-family="Helvetica" font-size="17" textLength="170">gcp_forwarding_rule</text><rect width="192" height="39.789" x="254" y="7" fill="#3D176E" rx="2.5" ry="2.5" style="stroke:#000d19;stroke-width:.5"/><circle cx="269" cy="26.895" r="11" fill="#ADD1B2" style="stroke:#181818;stroke-width:1"/><path d="M271.969 32.535q-.578.297-1.219.438-.64.156-1.344.156-2.5 0-3.828-1.64-1.312-1.657-1.312-4.782t1.312-4.781q1.328-1.656 3.828-1.656.703 0 1.344.156.656.156 1.219.453v2.719q-.625-.578-1.219-.844-.594-.281-1.219-.281-1.344 0-2.031 1.078-.688 1.062-.688 3.156 0 2.094.688 3.172.688 1.062 2.031 1.062.625 0 1.219-.265.594-.281 1.219-.86v2.72Z"/><text x="288" y="32.78" fill="#D9B8FF" font-family="Helvetica" font-size="17" textLength="150">gcp_ssl_certificate</text><rect width="157" height="39.789" x="481.5" y="7" fill="#3D176E" rx="2.5" ry="2.5" style="stroke:#000d19;stroke-width:.5"/><circle cx="496.5" cy="26.895" r="11" fill="#ADD1B2" style="stroke:#181818;stroke-width:1"/><path d="M499.469 32.535q-.578.297-1.219.438-.64.156-1.344.156-2.5 0-3.828-1.64-1.312-1.657-1.312-4.782t1.312-4.781q1.328-1.656 3.828-1.656.703 0 1.344.156.656.156 1.219.453v2.719q-.625-.578-1.219-.844-.594-.281-1.219-.281-1.344 0-2.031 1.078-.688 1.062-.688 3.156 0 2.094.688 3.172.688 1.062 2.031 1.062.625 0 1.219-.265.594-.281 1.219-.86v2.72Z"/><text x="515.5" y="32.78" fill="#D9B8FF" font-family="Helvetica" font-size="17" textLength="115">gcp_ssl_policy</text><rect width="238" height="39.789" x="231" y="106.79" fill="#3D176E" rx="2.5" ry="2.5" style="stroke:#000d19;stroke-width:.5"/><circle cx="246" cy="126.684" r="11" fill="#ADD1B2" style="stroke:#181818;stroke-width:1"/><path d="M248.969 132.325q-.578.297-1.219.438-.64.156-1.344.156-2.5 0-3.828-1.64-1.312-1.657-1.312-4.782t1.312-4.781q1.328-1.656 3.828-1.656.703 0 1.344.156.656.156 1.219.453v2.719q-.625-.579-1.219-.844-.594-.281-1.219-.281-1.344 0-2.031 1.078-.688 1.062-.688 3.156 0 2.094.688 3.172.688 1.062 2.031 1.062.625 0 1.219-.265.594-.281 1.219-.86v2.72Z"/><text x="265" y="132.57" fill="#D9B8FF" font-family="Helvetica" font-size="17" textLength="196">gcp_target_https_proxy</text><rect width="148" height="39.789" x="276" y="206.58" fill="#3D176E" rx="2.5" ry="2.5" style="stroke:#000d19;stroke-width:.5"/><circle cx="291" cy="226.475" r="11" fill="#ADD1B2" style="stroke:#181818;stroke-width:1"/><path d="M293.969 232.115q-.578.297-1.219.438-.64.156-1.344.156-2.5 0-3.828-1.64-1.312-1.657-1.312-4.782t1.312-4.781q1.328-1.656 3.828-1.656.703 0 1.344.156.656.156 1.219.453v2.719q-.625-.578-1.219-.844-.594-.281-1.219-.281-1.344 0-2.031 1.078-.688 1.062-.688 3.156 0 2.094.688 3.172.688 1.062 2.031 1.062.625 0 1.219-.265.594-.281 1.219-.86v2.72Z"/><text x="310" y="232.36" fill="#D9B8FF" font-family="Helvetica" font-size="17" textLength="106">gcp_url_map</text><path fill="none" d="M159.82 47.22c39.77 16.4 96.78 39.93 138 56.94" style="stroke:#1a83af;stroke-width:2"/><path fill="#1A83AF" d="m302.27 106.41-6.788-7.136 2.168 5.225-5.225 2.168 9.845-.257z" style="stroke:#1a83af;stroke-width:2"/><path fill="none" d="M350 47.22v53.31" style="stroke:#1a83af;stroke-width:2"/><path fill="#1A83AF" d="m350 105.41 4-9-4 4-4-4 4 9z" style="stroke:#1a83af;stroke-width:2"/><path fill="none" d="M518.51 47.22c-35.09 16.34-85.34 39.74-121.83 56.73" style="stroke:#1a83af;stroke-width:2"/><path fill="#1A83AF" d="m392.4 106.41 9.848-.157-5.312-1.947 1.946-5.311-6.482 7.415z" style="stroke:#1a83af;stroke-width:2"/><path fill="none" d="M350 147.01v53.31" style="stroke:#1a83af;stroke-width:2"/><path fill="#1A83AF" d="m350 205.2 4-9-4 4-4-4 4 9z" style="stroke:#1a83af;stroke-width:2"/></svg>
